X:1
T:The Lancer's Quadrilles
T:Spagnoletti
T:La Dorset
T:by Mutopia - Scritto con MuseScore, un software libero e gratuito: http://musescore.org/it
C:Spagnoletti
Z:by Mutopia - Scritto con MuseScore, un software libero e gratuito: http://musescore.org/it
%%score { ( 1 3 ) | 2 }
L:1/8
Q:3/8=100
M:6/8
K:F
V:1 treble nm="Piano" snm="Pno."
V:3 treble 
V:2 bass 
V:1
!p! c2 e2 c2 | [ca]2 [ca] [ca]2 [ca] |!f! [Acf]2 c cdc | [cgb]2 [cgb] [cfa]2 [cfa] | [ceg]2 z cec | %5
 [ca]2 [ca] [cg]2 [cg] | [Acf]2 c cdc | d2 g cde | [Af]2 z!fine! :: C!p!DC | %10
 [CE]2 [CE] [CF]2 [CG] | !>![D^G]2!f! G CDC | B,CB, A,B,A, | G,2 z cdc | [ca]2 [ca] [eg]2 [eg] | %15
 [df]2 [df]!f! [df][ce][Bd] | [Ac]2 [FA] [GB]2 [B,E] | [A,F]2 z :: AB!p!A | [Ad]2 [Ad] [Af]2 [Af] | %20
 [Ae]2 A ABA | [Ad]2 [Ad]({Bc)} [Af]2 [Af] | [Ae]3 A{c}BA | [cf]2 [cf] e2 e | %24
 [Fd]2 [Fd] [GB_e]2 [GBe] | [FAd]2 [FAd] [EG^c]2 [EGc] | [FAd]2 z :: ABA | [G^c]2 [Gc] [Ad]2 [Ad] | %29
 [A^d]2 E A,B,A, | G,A,G,!p! F,G,F, | E,2 z!f! ABA | [Af]2 [Af] [Ge]2 [Ge] | %33
 [Fd]2 [Fd] [B_e]2 [Be] | [Af]2 [Af] [Ge]2 [Ge] | [FAd]2 z!D.C.! :| %36
V:2
 z6 | [F,A,CF]2 [F,A,CF] [F,B,CE]2 [F,B,CE] | [F,A,C]2 z z2 z | [E,,E,]2 [E,,E,] [F,,F,]2 [F,,F,] | %4
 [E,,C,]2 z z2 z | [F,A,CF]2 [F,A,CF] [F,B,CE]2 [F,B,CE] | [F,A,CF]2 z z2 z | %7
 [G,B,]3[I:staff -1] C3 |[I:staff +1] [F,A,]2 z :: z2 z | [C,G,B,]2 [C,G,B,] [C,F,A,]2 [C,F,A,] | %11
 [C,E,G,]3 C,D,C, | B,,C,B,, A,,B,,A,, | G,,2 C, z2 z | z6 | x x x [B,,B,]3 | [C,C]2 z [C,,C,]2 z | %17
 [F,,F,]2 z :: z2 z | [A,F]2 ([A,F] [A,D]2) ([A,D] | [A,^C]3) z2 z | [A,F]2 ([A,F] [A,D]2) ([A,D] | %22
 [A,^C]3) z2 z | z2 z [A,^C]2 [A,C] | [B,D]2 [B,D] [G,,G,]2 [G,,G,] | %25
 [A,,A,]2 [A,,A,] [A,,,A,,]2 [A,,,A,,] | [D,,D,]2 z :: z2 z | A,2 A, A,2 A, | %29
!f! [A,^CE]3 A,,B,,A,, | G,,A,,G,, F,,G,,F,, | E,,2 z z2 z | [DF]2 ([DF] [A,C]2) [A,C] | %33
 [B,D]2 ([B,D] A,2) (G, | A,2) (A, A,,2) A,, | D,2 z :| %36
V:3
 x6 | x6 | x6 | x6 | x6 | x6 | x6 | G3 [EB]3 | F2 x :: x3 | x6 | x6 | x6 | x6 | %14
 [FA]2 [FA] [^CA]2 [CA] | [DA]2 z x3 | x6 | x3 :: x3 | x6 | x6 | x6 | x6 | [DF]2 [DF] G2 G | x6 | %25
 x6 | x3 :: x3 | E2 E E2 E | x6 | x6 | x6 | x6 | x6 | x6 | x3 :| %36

